X:1
T:Parte 1 #1
T:C. L. HANON
T:youtube.com/dicionarioderitmo
T:smdjacklima.com.br
T:C
%%score { 1 | 2 }
L:1/8
Q:1/4=60
M:2/4
K:C
V:1 bass nm="Piano" snm="Pno"
V:2 bass 
V:1
"^Binário-4, 1+1+1+1+1+1+1+1, 8""^C"!mf! !1!C,/!2!E,/F,/G,/ A,/G,/F,/E,/ | %1
"^Dm" D,/F,/G,/A,/ B,/A,/G,/F,/ |"^Em" E,/G,/A,/B,/ C/B,/A,/G,/ |"^F" F,/A,/B,/C/ D/C/B,/A,/ | %4
"^G" G,/B,/C/D/ E/D/C/B,/ |"^Am" A,/C/D/E/ F/E/D/C/ |"^B°" B,/D/E/F/ G/F/E/D/ | %7
[K:treble]"^C" C/E/F/G/ A/G/F/E/ |"^Dm" D/F/G/A/ B/A/G/F/ |"^Em" E/G/A/B/ c/B/A/G/ | %10
"^F" F/A/B/c/ d/c/B/A/ |"^G" G/B/c/d/ e/d/c/B/ |"^Am" A/c/d/e/ f/e/d/c/ |"^B°" B/d/e/f/ g/f/e/d/ || %14
"^C" !5!g/!4!e/d/c/ B/c/d/e/ |"^B°" f/d/c/B/ A/B/c/d/ |"^Am" e/c/B/A/ G/A/B/c/ | %17
"^G" d/B/A/G/ F/G/A/B/ |"^F" c/A/G/F/ E/F/G/A/ |"^Em" B/G/F/E/ D/E/F/G/ |"^Dm" A/F/E/D/ C/D/E/F/ | %21
[K:bass]"^C" G/E/D/C/ B,/C/D/E/ |"^B°" F/D/C/B,/ A,/B,/C/D/ |"^Am" E/C/B,/A,/ G,/A,/B,/C/ | %24
"^G" D/B,/A,/G,/ F,/G,/A,/B,/ |"^F" C/A,/G,/F,/ E,/F,/G,/A,/ |"^Em" B,/G,/F,/E,/ D,/E,/F,/G,/ | %27
"^Dm" A,/F,/E,/D,/ C,/D,/E,/F,/ |"^C" G,/E,/D,/C,/ B,,/C,/D,/E,/ :|"^C" C,2- C,2 |] %30
V:2
 !5!C,,/!4!E,,/F,,/G,,/ A,,/G,,/F,,/E,,/ | D,,/F,,/G,,/A,,/ B,,/A,,/G,,/F,,/ | %2
 E,,/G,,/A,,/B,,/ C,/B,,/A,,/G,,/ | F,,/A,,/B,,/C,/ D,/C,/B,,/A,,/ | G,,/B,,/C,/D,/ E,/D,/C,/B,,/ | %5
 A,,/C,/D,/E,/ F,/E,/D,/C,/ | B,,/D,/E,/F,/ G,/F,/E,/D,/ | C,/E,/F,/G,/ A,/G,/F,/E,/ | %8
 D,/F,/G,/A,/ B,/A,/G,/F,/ | E,/G,/A,/B,/ C/B,/A,/G,/ | F,/A,/B,/C/ D/C/B,/A,/ | %11
 G,/B,/C/D/ E/D/C/B,/ | A,/C/D/E/ F/E/D/C/ | B,/D/E/F/ G/F/E/D/ || !1!G/!2!E/D/C/ B,/C/D/E/ | %15
 F/D/C/B,/ A,/B,/C/D/ | E/C/B,/A,/ G,/A,/B,/C/ | D/B,/A,/G,/ F,/G,/A,/B,/ | %18
 C/A,/G,/F,/ E,/F,/G,/A,/ | B,/G,/F,/E,/ D,/E,/F,/G,/ | A,/F,/E,/D,/ C,/D,/E,/F,/ | %21
 G,/E,/D,/C,/ B,,/C,/D,/E,/ | F,/D,/C,/B,,/ A,,/B,,/C,/D,/ | E,/C,/B,,/A,,/ G,,/A,,/B,,/C,/ | %24
 D,/B,,/A,,/G,,/ F,,/G,,/A,,/B,,/ | C,/A,,/G,,/F,,/ E,,/F,,/G,,/A,,/ | %26
 B,,/G,,/F,,/E,,/ D,,/E,,/F,,/G,,/ | A,,/F,,/E,,/D,,/ C,,/D,,/E,,/F,,/ | %28
 G,,/E,,/D,,/C,,/ B,,,/C,,/D,,/E,,/ :| C,,2- C,,2 |] %30

